X:1
T:You Gentlemen of England
M:4/4
L:1/4
K:G
 D| G F G A| B2 A B| G F E3/2 F/2| D2 z D| G F G A| B3/2 A/2 A B| G F E3/2 F/2|\
 D2 z E| F3/2 E/2 D F| G3/2 F/2 E G| A F c A| G- F/2 z/2D/2-E/2 F|\
 G2E/2-F/2 G| A2F/2-G/2 A| B G A F| G zD/2-E/2 F| G2 E/2F/2 G| A2 F/2G/2 A|\
 B G A F| G2 z||
